assets/icons/headphones.svg

<svg xml:space="preserve" fill="#ebebeb" style="fill-rule:evenodd;clip-rule:evenodd;stroke-linejoin:round;stroke-miterlimit:2" viewBox="0 0 282 217" xmlns="http://www.w3.org/2000/svg"><path d="M4923 5855c-443-80-773-443-822-907-6-53-8-122-5-155l6-58-56-57c-81-84-88-114-84-385 3-208 4-220 28-268 66-134 205-209 411-222 73-5 92-3 134 16 63 28 83 46 106 96 17 36 19 72 19 407 0 235-4 377-11 395-15 40-57 82-104 104-50 23-167 25-245 4-30-8-56-15-57-15-10 0 0 144 13 208 54 266 229 500 459 615 112 56 211 79 355 84 154 6 231-7 356-57 279-112 483-372 533-680 13-76 14-170 4-170-5 0-33 7-63 15-78 21-185 19-235-4-47-22-89-64-104-104-7-18-11-160-11-394 0-349 1-369 21-409 51-107 171-138 358-94 150 36 238 99 293 209 22 43 23 59 26 272 4 270-4 305-88 383l-50 47v108c0 337-140 625-402 827-213 165-516 238-785 189m-435-1171 22-15v-349c0-402 8-373-102-371-70 1-126 14-188 46-99 50-110 82-110 325 0 220 6 242 72 290 54 40 97 58 173 75 81 18 106 18 133-1m1410-11c68-21 149-70 176-106 19-26 21-44 24-230 4-228-4-268-63-313-76-57-240-95-302-69l-33 14v700l23 16c26 19 89 15 175-12" style="fill:#fff;fill-rule:nonzero" transform="matrix(.1 0 0 -.1 -372 594)"/></svg>

<?xml version="1.0" encoding="UTF-8" standalone="no"?>
<!DOCTYPE svg PUBLIC "-//W3C//DTD SVG 1.1//EN" "http://www.w3.org/Graphics/SVG/1.1/DTD/svg11.dtd">
<svg width="100%" height="100%" viewBox="0 0 282 217" version="1.1" xmlns="http://www.w3.org/2000/svg" xmlns:xlink="http://www.w3.org/1999/xlink" xml:space="preserve" xmlns:serif="http://www.serif.com/" style="fill-rule:evenodd;clip-rule:evenodd;stroke-linejoin:round;stroke-miterlimit:2;">
    <g transform="matrix(0.1,0,0,-0.1,-372,594)">
        <g>
            <path d="M4923,5855C4480,5775 4150,5412 4101,4948C4095,4895 4093,4826 4096,4793L4102,4735L4046,4678C3965,4594 3958,4564 3962,4293C3965,4085 3966,4073 3990,4025C4056,3891 4195,3816 4401,3803C4474,3798 4493,3800 4535,3819C4598,3847 4618,3865 4641,3915C4658,3951 4660,3987 4660,4322C4660,4557 4656,4699 4649,4717C4634,4757 4592,4799 4545,4821C4495,4844 4378,4846 4300,4825C4270,4817 4244,4810 4243,4810C4233,4810 4243,4954 4256,5018C4310,5284 4485,5518 4715,5633C4827,5689 4926,5712 5070,5717C5224,5723 5301,5710 5426,5660C5705,5548 5909,5288 5959,4980C5972,4904 5973,4810 5963,4810C5958,4810 5930,4817 5900,4825C5822,4846 5715,4844 5665,4821C5618,4799 5576,4757 5561,4717C5554,4699 5550,4557 5550,4323C5550,3974 5551,3954 5571,3914C5622,3807 5742,3776 5929,3820C6079,3856 6167,3919 6222,4029C6244,4072 6245,4088 6248,4301C6252,4571 6244,4606 6160,4684L6110,4731L6110,4839C6110,5176 5970,5464 5708,5666C5495,5831 5192,5904 4923,5855ZM4488,4684L4510,4669L4510,4320C4510,3918 4518,3947 4408,3949C4338,3950 4282,3963 4220,3995C4121,4045 4110,4077 4110,4320C4110,4540 4116,4562 4182,4610C4236,4650 4279,4668 4355,4685C4436,4703 4461,4703 4488,4684ZM5898,4673C5966,4652 6047,4603 6074,4567C6093,4541 6095,4523 6098,4337C6102,4109 6094,4069 6035,4024C5959,3967 5795,3929 5733,3955L5700,3969L5700,4669L5723,4685C5749,4704 5812,4700 5898,4673Z" style="fill:white;fill-rule:nonzero;"/>
        </g>
    </g>
</svg>
